images/inst.svg

<svg width="31" height="30" viewBox="0 0 31 30" fill="none" xmlns="http://www.w3.org/2000/svg">
<path d="M21.3609 0H9.30482C4.40513 0 0.418945 4.00919 0.418945 8.93716V21.0628C0.418945 25.9908 4.40513 30 9.30482 30H21.3609C26.2606 30 30.2468 25.9908 30.2468 21.0628V8.93716C30.2467 4.00919 26.2606 0 21.3609 0ZM27.2461 21.0628C27.2461 24.3319 24.6112 26.982 21.3609 26.982H9.30482C6.05455 26.982 3.41963 24.3319 3.41963 21.0628V8.93716C3.41963 5.66807 6.05455 3.018 9.30482 3.018H21.3609C24.6112 3.018 27.2461 5.66807 27.2461 8.93716V21.0628Z" fill="url(#paint0_linear)"/>
<path d="M15.3327 7.24117C11.0789 7.24117 7.61816 10.7219 7.61816 15.0002C7.61816 19.2785 11.0789 22.7592 15.3327 22.7592C19.5865 22.7592 23.0473 19.2785 23.0473 15.0002C23.0473 10.7218 19.5865 7.24117 15.3327 7.24117ZM15.3327 19.7413C12.7293 19.7413 10.6188 17.6187 10.6188 15.0002C10.6188 12.3818 12.7293 10.2592 15.3327 10.2592C17.9361 10.2592 20.0466 12.3818 20.0466 15.0002C20.0466 17.6186 17.9361 19.7413 15.3327 19.7413Z" fill="url(#paint1_linear)"/>
<path d="M23.0624 9.15825C24.0834 9.15825 24.911 8.32585 24.911 7.29902C24.911 6.2722 24.0834 5.43979 23.0624 5.43979C22.0415 5.43979 21.2139 6.2722 21.2139 7.29902C21.2139 8.32585 22.0415 9.15825 23.0624 9.15825Z" fill="url(#paint2_linear)"/>
<defs>
<linearGradient id="paint0_linear" x1="15.3329" y1="29.9127" x2="15.3329" y2="0.233015" gradientUnits="userSpaceOnUse">
<stop stop-color="#E09B3D"/>
<stop offset="0.3" stop-color="#C74C4D"/>
<stop offset="0.6" stop-color="#C21975"/>
<stop offset="1" stop-color="#7024C4"/>
</linearGradient>
<linearGradient id="paint1_linear" x1="15.3327" y1="29.9129" x2="15.3327" y2="0.23325" gradientUnits="userSpaceOnUse">
<stop stop-color="#E09B3D"/>
<stop offset="0.3" stop-color="#C74C4D"/>
<stop offset="0.6" stop-color="#C21975"/>
<stop offset="1" stop-color="#7024C4"/>
</linearGradient>
<linearGradient id="paint2_linear" x1="23.0624" y1="29.9125" x2="23.0624" y2="0.232852" gradientUnits="userSpaceOnUse">
<stop stop-color="#E09B3D"/>
<stop offset="0.3" stop-color="#C74C4D"/>
<stop offset="0.6" stop-color="#C21975"/>
<stop offset="1" stop-color="#7024C4"/>
</linearGradient>
</defs>
</svg>

<svg width="31" height="30" fill="none" xmlns="http://www.w3.org/2000/svg"><path d="M21.36 0H9.306C4.405 0 .419 4.01.419 8.937v12.126C.419 25.99 4.405 30 9.305 30H21.36c4.9 0 8.886-4.01 8.886-8.937V8.937C30.247 4.01 26.26 0 21.36 0zm5.886 21.063c0 3.269-2.635 5.919-5.885 5.919H9.305c-3.25 0-5.885-2.65-5.885-5.92V8.938c0-3.269 2.635-5.919 5.885-5.919H21.36c3.25 0 5.885 2.65 5.885 5.92v12.125z" fill="url(#paint0_linear)"/><path d="M15.333 7.241c-4.254 0-7.715 3.48-7.715 7.76 0 4.278 3.46 7.758 7.715 7.758 4.254 0 7.714-3.48 7.714-7.759 0-4.278-3.46-7.759-7.714-7.759zm0 12.5c-2.604 0-4.714-2.122-4.714-4.74 0-2.62 2.11-4.742 4.714-4.742 2.603 0 4.714 2.123 4.714 4.741 0 2.619-2.11 4.741-4.714 4.741z" fill="url(#paint1_linear)"/><path d="M23.062 9.158A1.854 1.854 0 0024.911 7.3c0-1.027-.828-1.86-1.849-1.86-1.02 0-1.848.833-1.848 1.86 0 1.027.828 1.86 1.848 1.86z" fill="url(#paint2_linear)"/><defs><linearGradient id="paint0_linear" x1="15.333" y1="29.913" x2="15.333" y2=".233" gradientUnits="userSpaceOnUse"><stop stop-color="#E09B3D"/><stop offset=".3" stop-color="#C74C4D"/><stop offset=".6" stop-color="#C21975"/><stop offset="1" stop-color="#7024C4"/></linearGradient><linearGradient id="paint1_linear" x1="15.333" y1="29.913" x2="15.333" y2=".233" gradientUnits="userSpaceOnUse"><stop stop-color="#E09B3D"/><stop offset=".3" stop-color="#C74C4D"/><stop offset=".6" stop-color="#C21975"/><stop offset="1" stop-color="#7024C4"/></linearGradient><linearGradient id="paint2_linear" x1="23.062" y1="29.913" x2="23.062" y2=".233" gradientUnits="userSpaceOnUse"><stop stop-color="#E09B3D"/><stop offset=".3" stop-color="#C74C4D"/><stop offset=".6" stop-color="#C21975"/><stop offset="1" stop-color="#7024C4"/></linearGradient></defs></svg>
